dist/svg/u1F4DE.svg

<?xml version="1.0" encoding="UTF-8"?><svg id="a" xmlns="http://www.w3.org/2000/svg" viewBox="0 0 40 40"><path d="M11.151,28.849c8.149,8.149,14.33,10.004,19.254,8.832,2.734-.651,5.171-2.878,6.799-4.731,1.234-1.406,1.001-3.568-.479-4.713l-6.51-5.038c-.65-.503-1.573-.445-2.155,.137l-3.457,3.457c-.534,.534-1.357,.64-2,.245-1.111-.682-2.975-2.004-5.305-4.335-2.33-2.33-3.652-4.194-4.335-5.305-.395-.643-.289-1.466,.245-2l3.457-3.457c.581-.581,.64-1.504,.137-2.155L11.764,3.275c-1.145-1.48-3.308-1.713-4.713-.479-1.853,1.627-4.08,4.064-4.731,6.799-1.172,4.925,.683,11.105,8.832,19.254h0Z" fill="#23b169"/><rect width="40" height="40" fill="none"/></svg>

<svg id="Layer_1" data-name="Layer 1" xmlns="http://www.w3.org/2000/svg" viewBox="0 0 40 40"><defs><style>.cls-1{fill:#23b169;}.cls-2{fill:none;}</style></defs><path class="cls-1" d="M11.151,28.849c8.149,8.149,14.33,10,19.255,8.831,2.734-.65,5.171-2.878,6.8-4.731a3.254,3.254,0,0,0-.479-4.713L30.215,23.2a1.632,1.632,0,0,0-2.154.137L24.6,26.792a1.622,1.622,0,0,1-2,.244A29.612,29.612,0,0,1,17.3,22.7,29.612,29.612,0,0,1,12.964,17.4a1.622,1.622,0,0,1,.244-2l3.457-3.458A1.632,1.632,0,0,0,16.8,9.785l-5.038-6.51A3.254,3.254,0,0,0,7.051,2.8C5.2,4.423,2.97,6.86,2.32,9.594,1.148,14.519,3,20.7,11.151,28.849Z"/><rect class="cls-2" width="40" height="40"/></svg>
